X:130
T: Die elfjaehrige Markgraefin
N: Q1053H
O: Mitteleuropa, Deutschland
N: Melodievergleich zu Q0053 , anderes Lied.
R: ???
M: 2/2
L: 1/8
K: F
F2F2G2 | A2B2G3G | F4z2
F2c2d2 | _e2c2d4 | c4z2
c2c2c2 | f2edc2d2c2c2 | A4z2
c2A2c2 | B3AG2F2G4 | F2

@@@ Tune index: 866
